storage/app/icons/phosphoricons/duotone/shopping-bag-open-duotone.svg

<svg xmlns="http://www.w3.org/2000/svg" fill="currentColor" viewBox="0 0 256 256"><path d="M224 56v24H32V56a8 8 0 0 1 8-8h176a8 8 0 0 1 8 8" opacity=".2"/><path d="M216 40H40a16 16 0 0 0-16 16v144a16 16 0 0 0 16 16h176a16 16 0 0 0 16-16V56a16 16 0 0 0-16-16m0 16v16H40V56Zm0 144H40V88h176zm-40-88a48 48 0 0 1-96 0 8 8 0 0 1 16 0 32 32 0 0 0 64 0 8 8 0 0 1 16 0"/></svg>

<svg xmlns="http://www.w3.org/2000/svg" viewBox="0 0 256 256" fill="currentColor"><path d="M224,56V80H32V56a8,8,0,0,1,8-8H216A8,8,0,0,1,224,56Z" opacity="0.2"/><path d="M216,40H40A16,16,0,0,0,24,56V200a16,16,0,0,0,16,16H216a16,16,0,0,0,16-16V56A16,16,0,0,0,216,40Zm0,16V72H40V56Zm0,144H40V88H216V200Zm-40-88a48,48,0,0,1-96,0,8,8,0,0,1,16,0,32,32,0,0,0,64,0,8,8,0,0,1,16,0Z"/></svg>
